images/3233579.svg

<?xml version="1.0" encoding="UTF-8"?>
<svg xmlns="http://www.w3.org/2000/svg" xmlns:xlink="http://www.w3.org/1999/xlink" width="300pt" height="300pt" viewBox="0 0 300 300" version="1.1">
<defs>
<g>
<symbol overflow="visible" id="glyph0-0">
<path style="stroke:none;" d="M 0.796875 2.828125 L 0.796875 -11.28125 L 8.796875 -11.28125 L 8.796875 2.828125 Z M 1.703125 1.9375 L 7.90625 1.9375 L 7.90625 -10.390625 L 1.703125 -10.390625 Z M 1.703125 1.9375 "/>
</symbol>
<symbol overflow="visible" id="glyph0-1">
<path style="stroke:none;" d="M 1.578125 -11.671875 L 3.703125 -11.671875 L 8.875 -1.90625 L 8.875 -11.671875 L 10.40625 -11.671875 L 10.40625 0 L 8.28125 0 L 3.109375 -9.765625 L 3.109375 0 L 1.578125 0 Z M 1.578125 -11.671875 "/>
</symbol>
<symbol overflow="visible" id="glyph0-2">
<path style="stroke:none;" d="M 6.3125 -10.59375 C 5.164062 -10.59375 4.253906 -10.164062 3.578125 -9.3125 C 2.898438 -8.457031 2.5625 -7.296875 2.5625 -5.828125 C 2.5625 -4.359375 2.898438 -3.195312 3.578125 -2.34375 C 4.253906 -1.488281 5.164062 -1.0625 6.3125 -1.0625 C 7.457031 -1.0625 8.363281 -1.488281 9.03125 -2.34375 C 9.695312 -3.195312 10.03125 -4.359375 10.03125 -5.828125 C 10.03125 -7.296875 9.695312 -8.457031 9.03125 -9.3125 C 8.363281 -10.164062 7.457031 -10.59375 6.3125 -10.59375 Z M 6.3125 -11.875 C 7.945312 -11.875 9.253906 -11.328125 10.234375 -10.234375 C 11.210938 -9.140625 11.703125 -7.671875 11.703125 -5.828125 C 11.703125 -3.984375 11.210938 -2.507812 10.234375 -1.40625 C 9.253906 -0.3125 7.945312 0.234375 6.3125 0.234375 C 4.664062 0.234375 3.351562 -0.3125 2.375 -1.40625 C 1.394531 -2.507812 0.90625 -3.984375 0.90625 -5.828125 C 0.90625 -7.671875 1.394531 -9.140625 2.375 -10.234375 C 3.351562 -11.328125 4.664062 -11.875 6.3125 -11.875 Z M 6.3125 -11.875 "/>
</symbol>
</g>
</defs>
<g id="surface38185">
<rect x="0" y="0" width="300" height="300" style="fill:rgb(100%,100%,100%);fill-opacity:1;stroke:none;"/>
<path style="fill:none;stroke-width:1.2;stroke-linecap:butt;stroke-linejoin:miter;stroke:rgb(0%,0%,0%);stroke-opacity:1;stroke-miterlimit:10;" d="M 158.257812 141.953125 L 159.960938 161 "/>
<path style="fill:none;stroke-width:1.2;stroke-linecap:butt;stroke-linejoin:miter;stroke:rgb(0%,0%,100%);stroke-opacity:1;stroke-miterlimit:10;" d="M 159.960938 161 L 161.667969 180.050781 "/>
<path style="fill:none;stroke-width:1.2;stroke-linecap:butt;stroke-linejoin:miter;stroke:rgb(0%,0%,100%);stroke-opacity:1;stroke-miterlimit:10;" d="M 161.667969 180.050781 L 146.023438 191.050781 "/>
<path style="fill:none;stroke-width:1.2;stroke-linecap:butt;stroke-linejoin:miter;stroke:rgb(0%,0%,0%);stroke-opacity:1;stroke-miterlimit:10;" d="M 146.023438 191.050781 L 130.378906 202.050781 "/>
<path style="fill:none;stroke-width:1.2;stroke-linecap:butt;stroke-linejoin:miter;stroke:rgb(0%,0%,100%);stroke-opacity:1;stroke-miterlimit:10;" d="M 161.667969 180.050781 L 179.015625 188.097656 "/>
<path style="fill:none;stroke-width:1.2;stroke-linecap:butt;stroke-linejoin:miter;stroke:rgb(0%,0%,0%);stroke-opacity:1;stroke-miterlimit:10;" d="M 179.015625 188.097656 L 196.367188 196.144531 "/>
<path style=" stroke:none;fill-rule:nonzero;fill:rgb(100%,100%,100%);fill-opacity:1;" d="M 155.667969 170.550781 L 167.667969 170.550781 L 167.667969 189.550781 L 155.667969 189.550781 Z M 155.667969 170.550781 "/>
<g style="fill:rgb(0%,0%,100%);fill-opacity:1;">
  <use xlink:href="#glyph0-1" x="155.667969" y="185.402344"/>
</g>
<path style="fill:none;stroke-width:1.2;stroke-linecap:butt;stroke-linejoin:miter;stroke:rgb(0%,0%,0%);stroke-opacity:1;stroke-miterlimit:10;" d="M 130.378906 202.050781 L 95.679688 185.957031 "/>
<path style="fill:none;stroke-width:1.2;stroke-linecap:butt;stroke-linejoin:miter;stroke:rgb(0%,0%,0%);stroke-opacity:1;stroke-miterlimit:10;" d="M 95.679688 185.957031 L 62.261719 204.570312 "/>
<path style="fill:none;stroke-width:1.2;stroke-linecap:butt;stroke-linejoin:miter;stroke:rgb(0%,0%,0%);stroke-opacity:1;stroke-miterlimit:10;" d="M 87.960938 179.957031 L 61.226562 194.84375 "/>
<path style="fill:none;stroke-width:1.2;stroke-linecap:butt;stroke-linejoin:miter;stroke:rgb(100%,0%,0%);stroke-opacity:1;stroke-miterlimit:10;" d="M 88.304688 148.425781 L 91.992188 167.191406 "/>
<path style="fill:none;stroke-width:1.2;stroke-linecap:butt;stroke-linejoin:miter;stroke:rgb(0%,0%,0%);stroke-opacity:1;stroke-miterlimit:10;" d="M 91.992188 167.191406 L 95.679688 185.957031 "/>
<path style="fill:none;stroke-width:1.2;stroke-linecap:butt;stroke-linejoin:miter;stroke:rgb(0%,0%,0%);stroke-opacity:1;stroke-miterlimit:10;" d="M 62.261719 204.570312 L 34.238281 178.539062 "/>
<path style="fill:none;stroke-width:1.2;stroke-linecap:butt;stroke-linejoin:miter;stroke:rgb(0%,0%,0%);stroke-opacity:1;stroke-miterlimit:10;" d="M 34.238281 178.539062 L 50.332031 143.839844 "/>
<path style="fill:none;stroke-width:1.2;stroke-linecap:butt;stroke-linejoin:miter;stroke:rgb(0%,0%,0%);stroke-opacity:1;stroke-miterlimit:10;" d="M 44.011719 178.855469 L 56.886719 151.097656 "/>
<path style="fill:none;stroke-width:1.2;stroke-linecap:butt;stroke-linejoin:miter;stroke:rgb(0%,0%,0%);stroke-opacity:1;stroke-miterlimit:10;" d="M 50.332031 143.839844 L 69.320312 146.132812 "/>
<path style="fill:none;stroke-width:1.2;stroke-linecap:butt;stroke-linejoin:miter;stroke:rgb(100%,0%,0%);stroke-opacity:1;stroke-miterlimit:10;" d="M 69.320312 146.132812 L 88.304688 148.425781 "/>
<path style=" stroke:none;fill-rule:nonzero;fill:rgb(100%,100%,100%);fill-opacity:1;" d="M 82.304688 138.925781 L 95.304688 138.925781 L 95.304688 157.925781 L 82.304688 157.925781 Z M 82.304688 138.925781 "/>
<g style="fill:rgb(100%,0%,0%);fill-opacity:1;">
  <use xlink:href="#glyph0-2" x="82.304688" y="153.777344"/>
</g>
<path style="fill:none;stroke-width:1.2;stroke-linecap:butt;stroke-linejoin:miter;stroke:rgb(0%,0%,0%);stroke-opacity:1;stroke-miterlimit:10;" d="M 196.367188 196.144531 L 198.070312 215.195312 "/>
<path style="fill:none;stroke-width:1.2;stroke-linecap:butt;stroke-linejoin:miter;stroke:rgb(0%,0%,100%);stroke-opacity:1;stroke-miterlimit:10;" d="M 198.070312 215.195312 L 199.777344 234.242188 "/>
<path style="fill:none;stroke-width:1.2;stroke-linecap:butt;stroke-linejoin:miter;stroke:rgb(0%,0%,0%);stroke-opacity:1;stroke-miterlimit:10;" d="M 205.671875 199.152344 L 207.035156 214.390625 "/>
<path style="fill:none;stroke-width:1.2;stroke-linecap:butt;stroke-linejoin:miter;stroke:rgb(0%,0%,100%);stroke-opacity:1;stroke-miterlimit:10;" d="M 207.035156 214.390625 L 208.398438 229.628906 "/>
<path style="fill:none;stroke-width:1.2;stroke-linecap:butt;stroke-linejoin:miter;stroke:rgb(0%,0%,0%);stroke-opacity:1;stroke-miterlimit:10;" d="M 227.652344 174.144531 L 196.367188 196.144531 "/>
<path style="fill:none;stroke-width:1.2;stroke-linecap:butt;stroke-linejoin:miter;stroke:rgb(0%,0%,100%);stroke-opacity:1;stroke-miterlimit:10;" d="M 199.777344 234.242188 L 217.125 242.289062 "/>
<path style="fill:none;stroke-width:1.2;stroke-linecap:butt;stroke-linejoin:miter;stroke:rgb(0%,0%,0%);stroke-opacity:1;stroke-miterlimit:10;" d="M 217.125 242.289062 L 234.476562 250.339844 "/>
<path style=" stroke:none;fill-rule:nonzero;fill:rgb(100%,100%,100%);fill-opacity:1;" d="M 193.777344 224.742188 L 205.777344 224.742188 L 205.777344 243.742188 L 193.777344 243.742188 Z M 193.777344 224.742188 "/>
<g style="fill:rgb(0%,0%,100%);fill-opacity:1;">
  <use xlink:href="#glyph0-1" x="193.777344" y="239.59375"/>
</g>
<path style="fill:none;stroke-width:1.2;stroke-linecap:butt;stroke-linejoin:miter;stroke:rgb(0%,0%,0%);stroke-opacity:1;stroke-miterlimit:10;" d="M 234.476562 250.339844 L 250.121094 239.335938 "/>
<path style="fill:none;stroke-width:1.2;stroke-linecap:butt;stroke-linejoin:miter;stroke:rgb(0%,0%,100%);stroke-opacity:1;stroke-miterlimit:10;" d="M 250.121094 239.335938 L 265.761719 228.335938 "/>
<path style="fill:none;stroke-width:1.2;stroke-linecap:butt;stroke-linejoin:miter;stroke:rgb(0%,0%,0%);stroke-opacity:1;stroke-miterlimit:10;" d="M 232.425781 240.777344 L 244.941406 231.976562 "/>
<path style="fill:none;stroke-width:1.2;stroke-linecap:butt;stroke-linejoin:miter;stroke:rgb(0%,0%,100%);stroke-opacity:1;stroke-miterlimit:10;" d="M 244.941406 231.976562 L 257.457031 223.175781 "/>
<path style="fill:none;stroke-width:1.2;stroke-linecap:butt;stroke-linejoin:miter;stroke:rgb(0%,0%,100%);stroke-opacity:1;stroke-miterlimit:10;" d="M 265.761719 228.335938 L 264.058594 209.285156 "/>
<path style="fill:none;stroke-width:1.2;stroke-linecap:butt;stroke-linejoin:miter;stroke:rgb(0%,0%,0%);stroke-opacity:1;stroke-miterlimit:10;" d="M 264.058594 209.285156 L 262.351562 190.238281 "/>
<path style=" stroke:none;fill-rule:nonzero;fill:rgb(100%,100%,100%);fill-opacity:1;" d="M 259.761719 218.835938 L 271.761719 218.835938 L 271.761719 237.835938 L 259.761719 237.835938 Z M 259.761719 218.835938 "/>
<g style="fill:rgb(0%,0%,100%);fill-opacity:1;">
  <use xlink:href="#glyph0-1" x="259.761719" y="233.6875"/>
</g>
<path style="fill:none;stroke-width:1.2;stroke-linecap:butt;stroke-linejoin:miter;stroke:rgb(0%,0%,0%);stroke-opacity:1;stroke-miterlimit:10;" d="M 262.351562 190.238281 L 227.652344 174.144531 "/>
<path style="fill:none;stroke-width:1.2;stroke-linecap:butt;stroke-linejoin:miter;stroke:rgb(0%,0%,0%);stroke-opacity:1;stroke-miterlimit:10;" d="M 255.097656 196.792969 L 227.335938 183.917969 "/>
<path style="fill:none;stroke-width:1.2;stroke-linecap:butt;stroke-linejoin:miter;stroke:rgb(0%,0%,0%);stroke-opacity:1;stroke-miterlimit:10;" d="M 227.652344 174.144531 L 224.242188 136.046875 "/>
<path style="fill:none;stroke-width:1.2;stroke-linecap:butt;stroke-linejoin:miter;stroke:rgb(0%,0%,0%);stroke-opacity:1;stroke-miterlimit:10;" d="M 224.242188 136.046875 L 255.53125 114.042969 "/>
<path style="fill:none;stroke-width:1.2;stroke-linecap:butt;stroke-linejoin:miter;stroke:rgb(0%,0%,0%);stroke-opacity:1;stroke-miterlimit:10;" d="M 222.195312 126.484375 L 247.226562 108.882812 "/>
<path style="fill:none;stroke-width:1.2;stroke-linecap:butt;stroke-linejoin:miter;stroke:rgb(0%,0%,0%);stroke-opacity:1;stroke-miterlimit:10;" d="M 189.542969 119.949219 L 224.242188 136.046875 "/>
<path style="fill:none;stroke-width:1.2;stroke-linecap:butt;stroke-linejoin:miter;stroke:rgb(0%,0%,0%);stroke-opacity:1;stroke-miterlimit:10;" d="M 255.53125 114.042969 L 252.121094 75.945312 "/>
<path style="fill:none;stroke-width:1.2;stroke-linecap:butt;stroke-linejoin:miter;stroke:rgb(0%,0%,0%);stroke-opacity:1;stroke-miterlimit:10;" d="M 252.121094 75.945312 L 217.421875 59.851562 "/>
<path style="fill:none;stroke-width:1.2;stroke-linecap:butt;stroke-linejoin:miter;stroke:rgb(0%,0%,0%);stroke-opacity:1;stroke-miterlimit:10;" d="M 244.863281 82.5 L 217.105469 69.625 "/>
<path style="fill:none;stroke-width:1.2;stroke-linecap:butt;stroke-linejoin:miter;stroke:rgb(0%,0%,0%);stroke-opacity:1;stroke-miterlimit:10;" d="M 217.421875 59.851562 L 186.132812 81.851562 "/>
<path style="fill:none;stroke-width:1.2;stroke-linecap:butt;stroke-linejoin:miter;stroke:rgb(0%,0%,0%);stroke-opacity:1;stroke-miterlimit:10;" d="M 186.132812 81.851562 L 189.542969 119.949219 "/>
<path style="fill:none;stroke-width:1.2;stroke-linecap:butt;stroke-linejoin:miter;stroke:rgb(0%,0%,0%);stroke-opacity:1;stroke-miterlimit:10;" d="M 195.441406 84.859375 L 198.167969 115.335938 "/>
<path style="fill:none;stroke-width:1.2;stroke-linecap:butt;stroke-linejoin:miter;stroke:rgb(0%,0%,0%);stroke-opacity:1;stroke-miterlimit:10;" d="M 186.132812 81.851562 L 151.4375 65.757812 "/>
<path style="fill:none;stroke-width:1.2;stroke-linecap:butt;stroke-linejoin:miter;stroke:rgb(0%,0%,0%);stroke-opacity:1;stroke-miterlimit:10;" d="M 151.4375 65.757812 L 134.085938 57.710938 "/>
<path style="fill:none;stroke-width:1.2;stroke-linecap:butt;stroke-linejoin:miter;stroke:rgb(0%,0%,100%);stroke-opacity:1;stroke-miterlimit:10;" d="M 134.085938 57.710938 L 116.738281 49.660156 "/>
<path style="fill:none;stroke-width:1.2;stroke-linecap:butt;stroke-linejoin:miter;stroke:rgb(0%,0%,0%);stroke-opacity:1;stroke-miterlimit:10;" d="M 151.753906 55.984375 L 137.875 49.546875 "/>
<path style="fill:none;stroke-width:1.2;stroke-linecap:butt;stroke-linejoin:miter;stroke:rgb(0%,0%,100%);stroke-opacity:1;stroke-miterlimit:10;" d="M 137.875 49.546875 L 123.992188 43.105469 "/>
<path style="fill:none;stroke-width:1.2;stroke-linecap:butt;stroke-linejoin:miter;stroke:rgb(0%,0%,0%);stroke-opacity:1;stroke-miterlimit:10;" d="M 144.179688 72.3125 L 130.300781 65.875 "/>
<path style="fill:none;stroke-width:1.2;stroke-linecap:butt;stroke-linejoin:miter;stroke:rgb(0%,0%,100%);stroke-opacity:1;stroke-miterlimit:10;" d="M 130.300781 65.875 L 116.417969 59.4375 "/>
<path style=" stroke:none;fill-rule:nonzero;fill:rgb(100%,100%,100%);fill-opacity:1;" d="M 104.738281 40.160156 L 116.738281 40.160156 L 116.738281 59.160156 L 104.738281 59.160156 Z M 104.738281 40.160156 "/>
<g style="fill:rgb(0%,0%,100%);fill-opacity:1;">
  <use xlink:href="#glyph0-1" x="104.738281" y="55.011719"/>
</g>
</g>
</svg>

<svg xmlns="http://www.w3.org/2000/svg" xmlns:xlink="http://www.w3.org/1999/xlink" width="300pt" height="300pt" viewBox="0 0 300 300"><defs><symbol overflow="visible"><path d="M.797 2.828v-14.11h8V2.83zm.906-.89h6.203v-12.33H1.703zm0 0"/></symbol><symbol overflow="visible" id="a"><path d="M1.578-11.672h2.125l5.172 9.766v-9.766h1.53V0H8.282L3.11-9.766V0H1.577zm0 0"/></symbol><symbol overflow="visible" id="b"><path d="M6.313-10.594c-1.15 0-2.06.43-2.735 1.28-.68.857-1.015 2.017-1.015 3.486 0 1.47.335 2.633 1.015 3.484.676.856 1.586 1.28 2.735 1.28 1.144.002 2.05-.424 2.718-1.28.665-.85 1-2.015 1-3.484 0-1.47-.335-2.63-1-3.484-.667-.852-1.573-1.282-2.717-1.282zm0-1.28c1.632 0 2.94.546 3.92 1.64.978 1.093 1.47 2.562 1.47 4.406 0 1.844-.492 3.32-1.47 4.422-.98 1.093-2.288 1.64-3.92 1.64-1.65 0-2.96-.546-3.938-1.64-.98-1.102-1.47-2.578-1.47-4.422 0-1.844.49-3.313 1.47-4.406.977-1.094 2.29-1.64 3.938-1.64zm0 0"/></symbol></defs><g><path fill="#fff" d="M0 0h300v300H0z"/><path d="M158.258 141.953L159.96 161" stroke-width="1.2" stroke="#000" stroke-miterlimit="10" fill="none"/><path d="M159.96 161l1.708 19.05M161.668 180.05l-15.645 11" stroke-width="1.2" stroke="#00f" stroke-miterlimit="10" fill="none"/><path d="M146.023 191.05l-15.644 11" stroke-width="1.2" stroke="#000" stroke-miterlimit="10" fill="none"/><path d="M161.668 180.05l17.348 8.048" stroke-width="1.2" stroke="#00f" stroke-miterlimit="10" fill="none"/><path d="M179.016 188.098l17.35 8.047" stroke-width="1.2" stroke="#000" stroke-miterlimit="10" fill="none"/><path d="M155.668 170.55h12v19h-12zm0 0" fill="#fff"/><use xlink:href="#a" x="155.668" y="185.402" fill="#00f"/><path d="M130.38 202.05l-34.7-16.093M95.68 185.957L62.262 204.57M87.96 179.957l-26.733 14.887" stroke-width="1.2" stroke="#000" stroke-miterlimit="10" fill="none"/><path d="M88.305 148.426l3.687 18.765" stroke-width="1.2" stroke="#f00" stroke-miterlimit="10" fill="none"/><path d="M91.992 167.19l3.688 18.767M62.262 204.57l-28.024-26.03M34.238 178.54l16.094-34.7M44.012 178.855l12.875-27.757M50.332 143.84l18.988 2.293" stroke-width="1.2" stroke="#000" stroke-miterlimit="10" fill="none"/><path d="M69.32 146.133l18.985 2.293" stroke-width="1.2" stroke="#f00" stroke-miterlimit="10" fill="none"/><path d="M82.305 138.926h13v19h-13zm0 0" fill="#fff"/><use xlink:href="#b" x="82.305" y="153.777" fill="#f00"/><path d="M196.367 196.145l1.703 19.05" stroke-width="1.2" stroke="#000" stroke-miterlimit="10" fill="none"/><path d="M198.07 215.195l1.707 19.047" stroke-width="1.2" stroke="#00f" stroke-miterlimit="10" fill="none"/><path d="M205.672 199.152l1.363 15.24" stroke-width="1.2" stroke="#000" stroke-miterlimit="10" fill="none"/><path d="M207.035 214.39l1.363 15.24" stroke-width="1.2" stroke="#00f" stroke-miterlimit="10" fill="none"/><path d="M227.652 174.145l-31.285 22" stroke-width="1.2" stroke="#000" stroke-miterlimit="10" fill="none"/><path d="M199.777 234.242l17.348 8.047" stroke-width="1.2" stroke="#00f" stroke-miterlimit="10" fill="none"/><path d="M217.125 242.29l17.352 8.05" stroke-width="1.2" stroke="#000" stroke-miterlimit="10" fill="none"/><path d="M193.777 224.742h12v19h-12zm0 0" fill="#fff"/><use xlink:href="#a" x="193.777" y="239.594" fill="#00f"/><path d="M234.477 250.34l15.644-11.004" stroke-width="1.2" stroke="#000" stroke-miterlimit="10" fill="none"/><path d="M250.12 239.336l15.642-11" stroke-width="1.2" stroke="#00f" stroke-miterlimit="10" fill="none"/><path d="M232.426 240.777l12.515-8.8" stroke-width="1.2" stroke="#000" stroke-miterlimit="10" fill="none"/><path d="M244.94 231.977l12.517-8.8M265.762 228.336l-1.703-19.05" stroke-width="1.2" stroke="#00f" stroke-miterlimit="10" fill="none"/><path d="M264.06 209.285l-1.708-19.047" stroke-width="1.2" stroke="#000" stroke-miterlimit="10" fill="none"/><path d="M259.762 218.836h12v19h-12zm0 0" fill="#fff"/><use xlink:href="#a" x="259.762" y="233.688" fill="#00f"/><path d="M262.352 190.238l-34.7-16.093M255.098 196.793l-27.762-12.875M227.652 174.145l-3.41-38.098M224.242 136.047l31.29-22.004M222.195 126.484l25.032-17.6M189.543 119.95l34.7 16.097M255.53 114.043l-3.41-38.098M252.12 75.945l-34.698-16.093M244.863 82.5l-27.758-12.875M217.422 59.852l-31.29 22M186.133 81.852l3.41 38.097M195.44 84.86l2.728 30.476M186.133 81.852l-34.696-16.094M151.438 65.758l-17.352-8.047" stroke-width="1.2" stroke="#000" stroke-miterlimit="10" fill="none"/><path d="M134.086 57.71l-17.348-8.05" stroke-width="1.2" stroke="#00f" stroke-miterlimit="10" fill="none"/><path d="M151.754 55.984l-13.88-6.437" stroke-width="1.2" stroke="#000" stroke-miterlimit="10" fill="none"/><path d="M137.875 49.547l-13.883-6.442" stroke-width="1.2" stroke="#00f" stroke-miterlimit="10" fill="none"/><path d="M144.18 72.313l-13.88-6.438" stroke-width="1.2" stroke="#000" stroke-miterlimit="10" fill="none"/><path d="M130.3 65.875l-13.882-6.438" stroke-width="1.2" stroke="#00f" stroke-miterlimit="10" fill="none"/><path d="M104.738 40.16h12v19h-12zm0 0" fill="#fff"/><use xlink:href="#a" x="104.738" y="55.012" fill="#00f"/></g></svg>
